X:1
T:[ID 2-115]
T:[ID 2-115]
T:Bezeichnung standardisiert: I Trau Tans[?]; I Trau Tans[?]
T:Urheber unbekannt Datum in der hier transkribierten schriftlichen Quelle: 1767
C:Urheber unbekannt
C:Datum in der hier transkribierten schriftlichen Quelle: 1767
L:1/8
M:none
K:D
V:1 treble 
V:1
 A | defd | efge | fd (d/e/f/g/) | a2 A2 | df fe/d/ | eg gf/e/ | (fe/d/) (ed/c/) | d4 :: (3ABc | %10
 ddcB | A3 A | defd | A2 g2 | (f/a/f/d/) (e/g/e/c/) | d4 :| (3!fermata!A/B/c/ | ddcB | A3 A | %19
 BcdB | A3 d | efge | A3 g"^[Notat bricht ab]" | %23

